mi/campsite.svg

<svg viewBox="0 0 15 15" xmlns="http://www.w3.org/2000/svg" height="1em" width="1em">
  <path d="M14 10V11C14 11.5523 13.5523 12 13 12H2C1.44772 12 1 11.5523 1 11V10C1 9.44772 1.44772 9.00001 2 9.00001H2.25L7.03206 1.25762C7.24699 0.90965 7.75302 0.909651 7.96794 1.25762L12.75 9.00001H13C13.5523 9.00001 14 9.44772 14 10ZM10.5 9.00001L7.5 4.00001L4.5 9.00001H10.5Z"/>
</svg>

<svg viewBox="0 0 15 15" xmlns="http://www.w3.org/2000/svg" height="1em" width="1em">
  <path d="M14 10v1a1 1 0 0 1-1 1H2a1 1 0 0 1-1-1v-1a1 1 0 0 1 1-1h.25l4.782-7.742a.55.55 0 0 1 .936 0L12.75 9H13a1 1 0 0 1 1 1Zm-3.5-1-3-5-3 5h6Z"/>
</svg>
